icons-dark/mimetypes/16/text-x-adasrc.svg

<svg width="16" xmlns="http://www.w3.org/2000/svg" height="16" viewBox="0 0 16 16">
 <path fill="#16907d" color="#000000" stroke-width="1.4" d="m2 2v1h6v-1zm0 3v1h12v-1zm0 3v1h6v-1zm0 2v1h12v-1zm0 3v1h9v-1z"/>
</svg>

<?xml version="1.0" encoding="UTF-8" standalone="no"?>

<!-- Created with Inkscape (http://www.inkscape.org/) -->
<svg width="16" version="1.1" xmlns="http://www.w3.org/2000/svg" height="16" viewBox="0 0 16 16" xmlns:inkscape="http://www.inkscape.org/namespaces/inkscape">
 <defs id="defs4"/>
 <metadata id="metadata7"/>
 <path inkscape:label="Capa 1" inkscape:groupmode="layer" style="fill:#16907d;color:#000000;stroke-width:1.4" id="rect4020" d="M 2 2 L 2 3 L 8 3 L 8 2 L 2 2 z M 2 5 L 2 6 L 14 6 L 14 5 L 2 5 z M 2 8 L 2 9 L 8 9 L 8 8 L 2 8 z M 2 10 L 2 11 L 14 11 L 14 10 L 2 10 z M 2 13 L 2 14 L 11 14 L 11 13 L 2 13 z "/>
</svg>
